libs/ui/packages/crypto-icons/src/svg/ICP.svg

<svg width="124" height="124" viewBox="0 0 124 124" fill="none">
<path d="M93.8887 29.8892C86.9757 29.8892 79.4065 33.6608 71.4188 41.0905C68.0094 44.2945 64.8324 47.7374 61.9122 51.3928C61.9122 51.3928 65.7872 55.8517 70.0393 60.6567C72.354 57.753 75.64 53.8108 79.4737 50.251C86.5623 43.6067 91.1917 42.2633 93.8577 42.2633C103.814 42.2633 111.9 50.6333 111.9 60.9667C111.9 71.1967 103.814 79.5667 93.8577 79.67C93.372 79.67 92.8192 79.5977 92.1268 79.4633C95.0305 80.8067 98.177 81.778 101.117 81.778C119.365 81.778 122.961 69.161 123.168 68.262C123.685 65.9473 124 63.5242 124 61.0338C123.964 43.8547 110.484 29.8892 93.8887 29.8892V29.8892ZM30.1113 94.1108C37.0243 94.1108 44.5935 90.3392 52.5812 82.9095C55.9906 79.7055 59.1676 76.2626 62.0878 72.6072C62.0878 72.6072 58.2128 68.1483 53.9607 63.3433C51.646 66.247 48.36 70.1892 44.5263 73.749C37.4377 80.3158 32.7722 81.7367 30.1423 81.7367C20.1862 81.7367 12.1003 73.3667 12.1003 63.0333C12.1003 52.8033 20.1862 44.4333 30.1423 44.33C30.628 44.33 31.1808 44.4023 31.8732 44.5367C28.9695 43.1933 25.823 42.222 22.8832 42.222C4.6345 42.1858 1.0385 54.8028 0.831833 55.738C0.315167 58.0527 0 60.4758 0 62.9662C0 80.1453 13.485 94.1108 30.1113 94.1108ZM44.0045 51.5633C41.9998 49.6258 32.2555 41.7105 22.9193 41.4315C6.25683 41.0182 1.38467 53.1185 0.935167 54.6737C4.14883 41.1215 16.0425 30.9897 30.1423 30.9225C41.6537 30.9225 53.3045 42.2272 61.9173 52.4262L61.9483 52.39C61.9483 52.39 65.8233 56.8488 70.0703 61.6538C70.0703 61.6538 74.9115 67.3578 80.0265 72.3695C82.0312 74.307 91.7445 82.119 101.081 82.3928C118.193 82.8785 122.93 70.091 123.168 69.1197C120.027 82.7752 108.097 92.938 93.9248 93.0103C82.4135 93.0103 70.7627 81.7057 62.1188 71.5067C62.1188 71.5428 62.0878 71.5428 62.0878 71.5738C62.0878 71.5738 58.2128 67.115 53.9607 62.31C53.9968 62.31 49.1557 56.575 44.0045 51.5633ZM0.935167 54.808C0.935167 54.777 0.935167 54.7408 0.966167 54.7047C0.935167 54.7408 0.935167 54.777 0.935167 54.808Z" fill="black"/>
</svg>

<svg width="124" height="124" viewBox="0 0 124 124" fill="none"><path fill="#000" d="M93.889 29.89c-6.913 0-14.483 3.77-22.47 11.2a98.5 98.5 0 0 0-9.507 10.303s3.875 4.459 8.127 9.264c2.315-2.904 5.601-6.846 9.435-10.406 7.088-6.644 11.718-7.988 14.384-7.988 9.956 0 18.042 8.37 18.042 18.704 0 10.23-8.086 18.6-18.042 18.703-.486 0-1.039-.072-1.731-.207 2.904 1.344 6.05 2.315 8.99 2.315 18.248 0 21.844-12.617 22.051-13.516.517-2.315.832-4.738.832-7.228-.036-17.18-13.516-31.145-30.111-31.145M30.11 94.11c6.913 0 14.482-3.77 22.47-11.2a98.5 98.5 0 0 0 9.507-10.303s-3.875-4.459-8.127-9.264c-2.315 2.904-5.601 6.846-9.435 10.406-7.088 6.567-11.754 7.988-14.384 7.988-9.956 0-18.042-8.37-18.042-18.704 0-10.23 8.086-18.6 18.042-18.703.486 0 1.039.072 1.731.207-2.904-1.344-6.05-2.315-8.99-2.315C4.635 42.186 1.04 54.802.832 55.738.315 58.053 0 60.476 0 62.966c0 17.18 13.485 31.145 30.111 31.145m13.894-42.547C42 49.626 32.255 41.711 22.919 41.431 6.257 41.019 1.385 53.12.935 54.675 4.15 41.12 16.043 30.99 30.142 30.923c11.512 0 23.162 11.304 31.775 21.503l.031-.036s3.875 4.459 8.122 9.264c0 0 4.842 5.704 9.957 10.715 2.004 1.938 11.718 9.75 21.054 10.024 17.112.486 21.849-12.302 22.087-13.273-3.141 13.655-15.071 23.818-29.243 23.89-11.511 0-23.162-11.304-31.806-21.503 0 .036-.031.036-.031.067 0 0-3.875-4.459-8.127-9.264.036 0-4.805-5.735-9.956-10.747M.934 54.808c0-.031 0-.067.031-.103-.03.036-.03.072-.03.103"/></svg>
